X: 02111
T: REBEKKA McCARTHY
C: Bob McQuillen Nov.'75
B: Bob's Note Book 1&2 #111
%R: jig
Z: 2019 John Chambers <jc:trillian.mit.edu>
M: 6/8
L: 1/8
K: A
E \
| ABc BAG | FGA D2D | A2B cde | f3 e2e | fga afc | def ecA | def edA | B2G EFG |
| ABc BAG | FGA E2E | A2B cde | f3 e2e | fga aec | def ecA | GAB EFG | A4- A ||
|: A \
| G2A B2B | cBA GFE | e2e fga | ecA B2E | A2A BAB | cde f2e |\
[1 eae fec | dcB A2 :|[2 eae f2e | efg a2 |]
%%begintext align
%% With love always to Daughter #2.
%%endtext

%%sep 1 1 500

%%sep 1 1 500

